X: 1
T: Over the Ferry
T: Null thar an Aiseig
M: 2/4
L: 1/16
R: March
K: D
|: e2 | A2 A>B A>Bd>A | B>AB<d e2d>e | f>ed>B A>Bd>A | B2e2 e2>f2
A2 A>B A>Bd>A |B>A B<d e2d>e | f>ed>B A>Bd>A | B2d2 d2 :|
|: g2 | a2d<d f2ed | adfd adfd |  a2d<d f2ed | B2e2 e2>f2 |
a2d<d f2ed | adfd adfd |  a>fe<f e>dB<A | B2d2 d2 :|